X:1
T:Carraroe Jig, The
T:Highlander Over the Border, The
R:jig
D:Patrick Street
Z:derived from hn-jig-181
M:6/8
K:D
F|DED F2A|dfe d2A|BAF Adf|afd e2f|
DED F2A|dfe d2A|BcB AFA|dAF E2:|
A|dfa afa|bge edB|dfa afa|bge e2f|
dfa afa|bge edB|dcB AFA|dAF E2:|
</abc>
